X: 21642
T: THE DUKE'S HORNPIPE
R: hornpipe
B: K\"ohler's Violin Repository, v.2, 1885 p.164 #2
F: http://www.archive.org/details/klersviolinrepos02rugg
Z: 2012 John Chambers <jc:trillian.mit.edu>
M: C|
L: 1/8
K: Bb
uB2 |\
(A>B)d>F (=E>F)B>D | (^C>D)F>D B,4 | (A>c)e>f (g>f)e>c | (B>d)f>b (g>f)=e>f |
(A>B)d>F (=E>F)B>D | (^C>D)F>D B,4 | (A>c)e>f (_g>f)=e>f | (B>A)d>c B2 :|
|: uf2 |\
fecA F2g2 | {a}gfdB F2d2 | {e}dcA^F D2B2 | (BA)ed G4 |
A,CEF Ace2 | (A,B,)DF Bdf2 | (^fg)ce deGA | (d^c)=c=B _B2 :|

%%sep 2 1 500

